svgs/thin/lungs.svg

<svg xmlns="http://www.w3.org/2000/svg" viewBox="0 0 640 512"><!--! Font Awesome Pro 6.3.0 by @fontawesome - https://fontawesome.com License - https://fontawesome.com/license (Commercial License) Copyright 2023 Fonticons, Inc. --><path d="M640 415.3c0 29.8-13.89 57.45-38.09 75.88C583.9 504.9 562.4 512 540.3 512c-9.266 0-18.62-1.25-27.86-3.797l-55.77-15.27C413.9 481.1 384 442.9 384 400V319.1c0-4.422 3.578-8 8-8s8 3.578 8 8v80.02c0 35.7 25.06 67.57 60.94 77.51l55.75 15.25c26.48 7.312 53.98 2.094 75.52-14.34C612.4 463 624 440 624 415.3c0-9.031-1.125-17.92-3.359-26.45c-20.12-77.48-51.97-151.5-94.67-219.9l-5-8.105C502.9 131.4 491 112 457.6 112C425.8 112 400 136.8 400 167.2v100.5l84.44 56.3c3.672 2.453 4.672 7.422 2.219 11.09C485.1 337.4 482.6 338.7 480 338.7c-1.531 0-3.078-.4375-4.438-1.344l-145.8-97.17C325.9 237.5 322.7 234.1 320 230.4C317.3 234.1 314.1 237.5 310.2 240.2l-145.8 97.17C163.1 338.2 161.5 338.7 160 338.7c-2.578 0-5.109-1.25-6.656-3.562c-2.453-3.672-1.453-8.641 2.219-11.09L240 267.7V167.2C240 136.8 214.2 112 182.4 112c-33.39 0-45.3 19.42-63.34 48.82L114 168.9c-42.72 68.44-74.56 142.4-94.67 219.9C17.12 397.4 16 406.2 16 415.3c0 24.75 11.59 47.76 31.8 63.15c21.53 16.41 49 21.66 75.5 14.34l55.8-15.27C214.9 467.6 240 435.7 240 400V319.1c0-4.422 3.578-8 8-8S256 315.6 256 319.1v80.02c0 42.88-29.88 81.07-72.66 92.91l-55.81 15.28C118.3 510.8 108.1 512 99.7 512c-22.08 0-43.59-7.125-61.61-20.84C13.89 472.7 0 445.1 0 415.3c0-10.39 1.312-20.66 3.891-30.52c20.52-79.01 53-154.5 96.58-224.3l4.938-8C123.1 122.2 140 96 182.4 96C222.1 96 256 127.1 256 167.2V257.1l45.31-30.21C308 222.4 312 214.9 312 206.9V8C312 3.578 315.6 0 320 0s8 3.578 8 8v198.9c0 8.047 4 15.5 10.69 19.97L384 257.1V167.2C384 127.1 417 96 457.6 96c42.34 0 58.39 26.17 76.97 56.46l4.953 8c43.56 69.81 76.05 145.3 96.58 224.3C638.7 394.6 640 404.9 640 415.3z"/></svg>

<svg xmlns="http://www.w3.org/2000/svg" viewBox="0 0 640 512"><!-- Font Awesome Pro 6.0.0-alpha2 by @fontawesome - https://fontawesome.com License - https://fontawesome.com/license (Commercial License) --><path d="M640 415.273C640 445.07 626.109 472.723 601.906 491.156C583.891 504.859 562.375 512 540.312 512C531.047 512 521.688 510.75 512.453 508.203L456.687 492.938C413.875 481.078 384 442.883 384 400.008V319.984C384 315.562 387.578 311.984 392 311.984S400 315.562 400 319.984V400.008C400 435.711 425.062 467.582 460.938 477.516L516.688 492.766C543.172 500.078 570.672 494.859 592.203 478.422C612.406 463.035 624 440.023 624 415.273C624 406.242 622.875 397.352 620.641 388.82C600.516 311.344 568.672 237.367 525.969 168.93L520.969 160.824C502.922 131.422 491.016 112 457.625 112C425.844 112 400 136.762 400 167.211V267.719L484.438 324.016C488.109 326.469 489.109 331.437 486.656 335.109C485.109 337.422 482.578 338.672 480 338.672C478.469 338.672 476.922 338.234 475.562 337.328L329.812 240.156C325.867 237.523 322.725 234.109 320 230.406C317.275 234.109 314.133 237.523 310.188 240.156L164.438 337.328C163.078 338.234 161.531 338.672 160 338.672C157.422 338.672 154.891 337.422 153.344 335.109C150.891 331.438 151.891 326.469 155.562 324.016L240 267.719V167.211C240 136.762 214.156 112 182.375 112C148.984 112 137.078 131.422 119.031 160.824L114.047 168.93C71.328 237.367 39.484 311.344 19.375 388.805C17.125 397.352 16 406.242 16 415.273C16 440.023 27.594 463.035 47.797 478.422C69.328 494.828 96.797 500.078 123.297 492.766L179.094 477.5C214.938 467.582 240 435.711 240 400.008V319.984C240 315.562 243.578 311.984 248 311.984S256 315.562 256 319.984V400.008C256 442.883 226.125 481.078 183.344 492.922L127.531 508.203C118.297 510.75 108.953 512 99.703 512C77.625 512 56.109 504.875 38.094 491.156C13.891 472.723 0 445.07 0 415.273C0 404.883 1.312 394.617 3.891 384.758C24.406 305.75 56.891 230.273 100.469 160.465L105.406 152.465C123.984 122.172 140.031 96 182.375 96C222.969 96 256 127.953 256 167.211V257.055L301.312 226.844C308 222.375 312 214.922 312 206.875V8C312 3.578 315.578 0 320 0S328 3.578 328 8V206.875C328 214.922 332 222.375 338.688 226.844L384 257.055V167.211C384 127.953 417.031 96 457.625 96C499.969 96 516.016 122.172 534.594 152.465L539.547 160.465C583.109 230.273 615.594 305.75 636.125 384.773C638.688 394.617 640 404.883 640 415.273Z"/></svg>
